main/svg/dots2.svg

<svg xmlns="http://www.w3.org/2000/svg" width="32" height="32"><path d="M9 8a1 1 0 1 1-2 0 1 1 0 0 1 2 0Zm8 0a1 1 0 1 1-2 0 1 1 0 0 1 2 0Zm8 8a1 1 0 1 1-2 0 1 1 0 0 1 2 0ZM9 16a1 1 0 1 1-2 0 1 1 0 0 1 2 0Zm8 8a1 1 0 1 1-2 0 1 1 0 0 1 2 0Zm8 0a1 1 0 1 1-2 0 1 1 0 0 1 2 0ZM13 12a1 1 0 1 1-2 0 1 1 0 0 1 2 0Zm8 0a1 1 0 1 1-2 0 1 1 0 0 1 2 0Zm-8 8a1 1 0 1 1-2 0 1 1 0 0 1 2 0Zm8 0a1 1 0 1 1-2 0 1 1 0 0 1 2 0ZM9 24a1 1 0 1 1-2 0 1 1 0 0 1 2 0ZM25 8a1 1 0 1 1-2 0 1 1 0 0 1 2 0Zm-8 8a1 1 0 1 1-2 0 1 1 0 0 1 2 0Zm0 0" style="stroke:none;fill-rule:nonzero;fill:#000;fill-opacity:1"/></svg>

<svg xmlns="http://www.w3.org/2000/svg" width="32" height="32"><path d="M9 8a1 1 0 1 1-2 0A1 1 0 0 1 9 8Zm8 0a1 1 0 1 1-2 0A1 1 0 0 1 17 8ZM25 16a1 1 0 1 1-2-0A1 1 0 0 1 25 16ZM9 16a1 1 0 1 1-2-0A1 1 0 0 1 9 16Zm8 8a1 1 0 1 1-2-0A1 1 0 0 1 17 24Zm8 0a1 1 0 1 1-2-0A1 1 0 0 1 25 24ZM13 12a1 1 0 1 1-2-0A1 1 0 0 1 13 12Zm8 0a1 1 0 1 1-2-0A1 1 0 0 1 21 12Zm-8 8a1 1 0 1 1-2 0A1 1 0 0 1 13 20Zm8 0a1 1 0 1 1-2 0A1 1 0 0 1 21 20ZM9 24a1 1 0 1 1-2-0A1 1 0 0 1 9 24ZM25 8a1 1 0 1 1-2 0A1 1 0 0 1 25 8ZM17 16a1 1 0 1 1-2-0A1 1 0 0 1 17 16Zm0 0" style="stroke:none;fill-rule:nonzero;fill:#000;fill-opacity:1"/></svg>
